X: 42049
T: Waltz From Orsa
R: waltz
M: 3/4
K: Dmajor
|A4 A2|B2 AG FA|d4 d2|d2 cA de|f4 a2|a2 gf ed|Ac eg fe|d2 Bd BG|
A4 A2|A2 BA FA|d4 d2|d2 cA de|f4 a2|a2 gf ed|Ac eg fe|1 d4 DF:|2 d4 a2||
|:b2 gb gb|a2 fd fa|a2 g2 ec|A2 Ad fa|
b2 gb gb|a2 fd fa|a2 g2 ec|1 d4 a2:|2 d4 A2||
|:A2 d2 g2|f2>e2 d2|d2 gb gb|a2>f2 d2|de =f2=f2|e4 =c2|=c2 Bd BG|
A4 A2|A2 d2 a2|g2>f2 g2|A2 d2 f2|e2>d2 e2|AB c2 d2|B2>A2G2|AB AG EC|D4 D2:|

